icons/entity/icon_alfa-check_m_black.svg

<?xml version="1.0" encoding="UTF-8"?>
<svg width="24px" height="24px" viewBox="0 0 24 24" version="1.1" xmlns="http://www.w3.org/2000/svg" xmlns:xlink="http://www.w3.org/1999/xlink">
    <!-- Generator: Sketch 47 (45396) - http://www.bohemiancoding.com/sketch -->
    <title>icon_tool-alfa-check_m_black</title>
    <desc>Created with Sketch.</desc>
    <defs></defs>
    <g id="Page-1" stroke="none" stroke-width="1" fill="none" fill-rule="evenodd">
        <g id="icon_tool-alfa-check_m_black">
            <polygon id="Shape" points="0 0 24 0 24 24 0 24"></polygon>
            <path d="M2.5,17 C2.22385763,17 2,16.7761424 2,16.5 L2,4.5 C2,4.22385763 2.22385763,4 2.5,4 L21.5,4 C21.7761424,4 22,4.22385763 22,4.5 L22,14 L23,14 L23,4.5 C23,3.67157288 22.3284271,3 21.5,3 L2.5,3 C1.67157288,3 1,3.67157288 1,4.5 L1,16.5 C1,17.3284271 1.67157288,18 2.5,18 L5,18 L5,17 L2.5,17 Z" id="Shape" fill="#0B1F35" fill-rule="nonzero"></path>
            <path d="M12,22 L12,16 L13.077,16 L14.963,20.557 L15.033,20.557 L16.923,16 L18,16 L18,22 L17.145,22 L17.145,17.667 L17.087,17.667 L15.348,21.825 L14.65,21.825 L12.912,17.667 L12.854,17.667 L12.854,22 L12,22 Z M19.261,20.812 C19.6753409,21.0711676 20.1514594,21.2147972 20.64,21.228 C21.4,21.228 21.756,20.848 21.756,20.373 C21.756,19.874 21.459,19.601 20.687,19.315 C19.653,18.947 19.166,18.377 19.166,17.687 C19.166,16.761 19.915,16 21.15,16 C21.732,16 22.243,16.166 22.563,16.356 L22.302,17.116 C21.9483443,16.8984837 21.5411933,16.7835397 21.126,16.784 C20.509,16.784 20.164,17.14 20.164,17.568 C20.164,18.043 20.508,18.257 21.256,18.542 C22.254,18.922 22.765,19.421 22.765,20.277 C22.765,21.287 21.981,22 20.614,22 C19.984,22 19.403,21.845 18.998,21.608 L19.261,20.812 L19.261,20.812 Z M7.261,20.812 C7.67534094,21.0711676 8.15145939,21.2147972 8.64,21.228 C9.4,21.228 9.756,20.848 9.756,20.373 C9.756,19.874 9.459,19.601 8.687,19.315 C7.653,18.947 7.166,18.377 7.166,17.687 C7.166,16.76 7.915,16 9.151,16 C9.733,16 10.244,16.166 10.564,16.356 L10.303,17.116 C9.94934435,16.8984837 9.54219326,16.7835397 9.127,16.784 C8.51,16.784 8.165,17.14 8.165,17.568 C8.165,18.043 8.509,18.257 9.257,18.542 C10.255,18.922 10.766,19.421 10.766,20.277 C10.766,21.287 9.982,22 8.615,22 C7.986,22 7.404,21.845 7,21.608 L7.261,20.812 L7.261,20.812 Z" id="Shape" fill="#0B1F35" fill-rule="nonzero"></path>
            <polygon id="Shape" fill="#0B1F35" fill-rule="nonzero" opacity="0.4" points="12 10.408 2.227 3.716 1.661 4.536 12 11.606 22.276 4.536 21.566 3.863"></polygon>
            <g id="Group" transform="translate(1.000000, 3.000000)"></g>
        </g>
    </g>
</svg>

<svg width="24" height="24" viewBox="0 0 24 24" xmlns="http://www.w3.org/2000/svg">
  <g fill="none" fill-rule="evenodd">
    <path d="M0 0h24v24H0"/>
    <path d="M2.5 17c-.276 0-.5-.224-.5-.5v-12c0-.276.224-.5.5-.5h19c.276 0 .5.224.5.5V14h1V4.5c0-.828-.672-1.5-1.5-1.5h-19C1.672 3 1 3.672 1 4.5v12c0 .828.672 1.5 1.5 1.5H5v-1H2.5z" fill="#0B1F35" fill-rule="nonzero"/>
    <path d="M12 22v-6h1.077l1.886 4.557h.07L16.923 16H18v6h-.855v-4.333h-.058l-1.74 4.158h-.697l-1.738-4.158h-.058V22H12zm7.26-1.188c.415.26.89.403 1.38.416.76 0 1.116-.38 1.116-.855 0-.5-.297-.772-1.07-1.058-1.033-.368-1.52-.938-1.52-1.628 0-.926.75-1.687 1.984-1.687.582 0 1.093.166 1.413.356l-.26.76c-.355-.218-.762-.332-1.177-.332-.617 0-.962.356-.962.784 0 .475.344.69 1.092.974.998.38 1.51.88 1.51 1.735 0 1.01-.785 1.723-2.152 1.723-.63 0-1.21-.155-1.616-.392l.263-.796zm-12 0c.415.26.89.403 1.38.416.76 0 1.116-.38 1.116-.855 0-.5-.297-.772-1.07-1.058-1.033-.368-1.52-.938-1.52-1.628 0-.927.75-1.687 1.985-1.687.583 0 1.094.166 1.414.356l-.26.76c-.355-.218-.762-.332-1.177-.332-.617 0-.962.356-.962.784 0 .475.344.69 1.092.974.998.38 1.51.88 1.51 1.735 0 1.01-.785 1.723-2.152 1.723-.63 0-1.21-.155-1.615-.392l.26-.796z" fill="#0B1F35" fill-rule="nonzero"/>
    <path fill="#0B1F35" fill-rule="nonzero" opacity=".4" d="M12 10.408L2.227 3.716l-.566.82L12 11.606l10.276-7.07-.71-.673"/>
  </g>
</svg>
